SVG_Azure_Grouped/Management/Alert.svg

<?xml version="1.0" encoding="UTF-8" standalone="no"?>
<!-- Generated by Microsoft Visio, SVG Export Alert.svg Page-1 -->

<svg
   xmlns:dc="http://purl.org/dc/elements/1.1/"
   xmlns:cc="http://creativecommons.org/ns#"
   xmlns:rdf="http://www.w3.org/1999/02/22-rdf-syntax-ns#"
   xmlns:svg="http://www.w3.org/2000/svg"
   xmlns="http://www.w3.org/2000/svg"
   xmlns:sodipodi="http://sodipodi.sourceforge.net/DTD/sodipodi-0.dtd"
   xmlns:inkscape="http://www.inkscape.org/namespaces/inkscape"
   width="0.7873705in"
   height="0.6708293in"
   viewBox="0 0 56.690584 48.299426"
   xml:space="preserve"
   class="st3"
   version="1.1"
   id="svg41"
   sodipodi:docname="Alert.svg"
   style="font-size:12px;overflow:visible;color-interpolation-filters:sRGB;fill:none;fill-rule:evenodd;stroke-linecap:square;stroke-miterlimit:3"
   inkscape:version="0.92.5 (2060ec1f9f, 2020-04-08)"><metadata
   id="metadata45"><rdf:RDF><cc:Work
       rdf:about=""><dc:format>image/svg+xml</dc:format><dc:type
         rdf:resource="http://purl.org/dc/dcmitype/StillImage" /></cc:Work></rdf:RDF></metadata><sodipodi:namedview
   pagecolor="#ffffff"
   bordercolor="#666666"
   borderopacity="1"
   objecttolerance="10"
   gridtolerance="10"
   guidetolerance="10"
   inkscape:pageopacity="0"
   inkscape:pageshadow="2"
   inkscape:window-width="640"
   inkscape:window-height="480"
   id="namedview43"
   showgrid="false"
   inkscape:zoom="1.5220087"
   inkscape:cx="37.795385"
   inkscape:cy="32.198225"
   inkscape:window-x="0"
   inkscape:window-y="0"
   inkscape:window-maximized="0"
   inkscape:current-layer="svg41" />
	<style
   type="text/css"
   id="style2">
	<![CDATA[
		.st1 {fill:url(#grad0-6);stroke:none;stroke-linecap:butt;stroke-width:34}
		.st2 {fill:#ffffff;stroke:none;stroke-linecap:butt;stroke-width:34}
		.st3 {fill:none;fill-rule:evenodd;font-size:12px;overflow:visible;stroke-linecap:square;stroke-miterlimit:3}
	]]>
	</style>

	<defs
   id="Patterns_And_Gradients">
		<linearGradient
   id="grad0-6"
   x1="-0.00026961854"
   y1="73.778641"
   x2="52.326918"
   y2="73.778641"
   gradientTransform="scale(1.0833868,0.92303137)"
   gradientUnits="userSpaceOnUse">
			<stop
   offset="0"
   stop-color="#5e9624"
   stop-opacity="1"
   id="stop4" />
			<stop
   offset="0.18"
   stop-color="#629c25"
   stop-opacity="1"
   id="stop6" />
			<stop
   offset="0.44"
   stop-color="#6dae2a"
   stop-opacity="1"
   id="stop8" />
			<stop
   offset="0.73"
   stop-color="#7fcb30"
   stop-opacity="1"
   id="stop10" />
			<stop
   offset="0.82"
   stop-color="#86d633"
   stop-opacity="1"
   id="stop12" />
		</linearGradient>
	</defs>
	<g
   id="g39"
   transform="translate(-34.000008,-33.995748)">
		<title
   id="title16">Page-1</title>
		<g
   id="group13309-1"
   transform="translate(34.0003,-34.1045)">
			<title
   id="title18">Alert.13309</title>
			<g
   id="group13310-2">
				<title
   id="title20">Sheet.13310</title>
				<g
   id="shape13311-3">
					<title
   id="title22">Sheet.13311</title>
					<path
   d="M 56.69,70.11 V 107 a 1.93423,1.97567 0 0 1 -1.93,1.98 H 39.69 a 0.500232,0.510949 -180 0 0 -0.500232,0.47688 L 39.18,115.42 a 0.933766,0.953771 0 0 1 -1.50069,0.78346 L 28.61,109.08 H 1.93 A 1.93423,1.97567 0 0 1 0,107.11 v -37 A 1.93423,1.97567 0 0 1 1.93,68.1 h 52.83 a 1.93423,1.97567 0 0 1 1.93,2.01 z"
   class="st1"
   id="path24"
   inkscape:connector-curvature="0"
   style="fill:url(#grad0-6);stroke:none;stroke-width:34;stroke-linecap:butt" />
				</g>
				<g
   id="shape13312-7"
   transform="translate(24.3446,-21.8922)">
					<title
   id="title27">Sheet.13312</title>
					<path
   d="M 5.8,116.29 H 1.93 A 1.20056,1.22628 0 0 1 0.67,115.14 L 0,95.17 A 1.16721,1.19221 0 0 1 1.17,93.95 H 6.84 A 1.16721,1.19221 0 0 1 8,95.21 l -1.03,19.96 a 1.16721,1.19221 0 0 1 -1.17,1.12 z"
   class="st2"
   id="path29"
   inkscape:connector-curvature="0"
   style="fill:#ffffff;stroke:none;stroke-width:34;stroke-linecap:butt" />
				</g>
				<g
   id="shape13313-9"
   transform="translate(25.4451,-12.7632)">
					<title
   id="title32">Sheet.13313</title>
					<path
   d="m 0,114.22 a 2.03432,2.07791 -180 0 0 2.03,2.07 H 3.6 a 2.03432,2.07791 -180 0 0 2.04,-2.07 v -1.61 A 2.03432,2.07791 -180 0 0 3.6,110.54 H 2.03 A 2.03432,2.07791 -180 0 0 0,112.61 Z"
   class="st2"
   id="path34"
   inkscape:connector-curvature="0"
   style="fill:#ffffff;stroke:none;stroke-width:34;stroke-linecap:butt" />
				</g>
			</g>
		</g>
	</g>
</svg>

<?xml version="1.0" encoding="UTF-8" standalone="no"?>
<!DOCTYPE svg PUBLIC "-//W3C//DTD SVG 1.1//EN" "http://www.w3.org/Graphics/SVG/1.1/DTD/svg11.dtd">
<!-- Generated by Microsoft Visio, SVG Export Alert.svg Page-1 -->
<svg xmlns="http://www.w3.org/2000/svg" xmlns:xlink="http://www.w3.org/1999/xlink" xmlns:ev="http://www.w3.org/2001/xml-events"
		width="1.73185in" height="1.61519in" viewBox="0 0 124.693 116.293" xml:space="preserve" color-interpolation-filters="sRGB"
		class="st3">
	<style type="text/css">
	<![CDATA[
		.st1 {fill:url(#grad0-6);stroke:none;stroke-linecap:butt;stroke-width:34}
		.st2 {fill:#ffffff;stroke:none;stroke-linecap:butt;stroke-width:34}
		.st3 {fill:none;fill-rule:evenodd;font-size:12px;overflow:visible;stroke-linecap:square;stroke-miterlimit:3}
	]]>
	</style>

	<defs id="Patterns_And_Gradients">
		<linearGradient id="grad0-6" x1="0" y1="0" x2="1" y2="0" gradientTransform="rotate(-90 0.5 0.5)">
			<stop offset="0" stop-color="#5e9624" stop-opacity="1"/>
			<stop offset="0.18" stop-color="#629c25" stop-opacity="1"/>
			<stop offset="0.44" stop-color="#6dae2a" stop-opacity="1"/>
			<stop offset="0.73" stop-color="#7fcb30" stop-opacity="1"/>
			<stop offset="0.82" stop-color="#86d633" stop-opacity="1"/>
		</linearGradient>
	</defs>
	<g>
		<title>Page-1</title>
		<g id="group13016-1" transform="translate(34.0003,-34.1045)">
			<title>Alert.13016</title>
			<g id="group13017-2">
				<title>Sheet.13017</title>
				<g id="shape13018-3">
					<title>Sheet.13018</title>
					<path d="M56.69 70.11 L56.69 107 A1.93423 1.97567 0 0 1 54.76 108.98 L39.69 108.98 a0.500232 0.510949 -180 0
								 0 -0.500232 0.476885 L39.18 115.42 a0.933766 0.953771 0 0 1 -1.50069 0.783455 L28.61 109.08 L1.93
								 109.08 A1.93423 1.97567 0 0 1 -0 107.11 L0 70.11 A1.93423 1.97567 0 0 1 1.93 68.1 L54.76 68.1 A1.93423
								 1.97567 0 0 1 56.69 70.11 Z" class="st1"/>
				</g>
				<g id="shape13019-7" transform="translate(24.3446,-21.8922)">
					<title>Sheet.13019</title>
					<path d="M5.8 116.29 L1.93 116.29 A1.20056 1.22628 0 0 1 0.67 115.14 L0 95.17 A1.16721 1.19221 0 0 1 1.17 93.95
								 L6.84 93.95 A1.16721 1.19221 0 0 1 8 95.21 L6.97 115.17 A1.16721 1.19221 0 0 1 5.8 116.29 Z"
							class="st2"/>
				</g>
				<g id="shape13020-9" transform="translate(25.4451,-12.7632)">
					<title>Sheet.13020</title>
					<path d="M-0 114.22 A2.03432 2.07791 -180 0 0 2.03 116.29 L3.6 116.29 A2.03432 2.07791 -180 0 0 5.64 114.22 L5.64
								 112.61 A2.03432 2.07791 -180 0 0 3.6 110.54 L2.03 110.54 A2.03432 2.07791 -180 0 0 0 112.61 L0 114.22
								 Z" class="st2"/>
				</g>
			</g>
		</g>
	</g>
</svg>
